X: 112
T:Babylon Hornpipe,The,aka. HA.111
M:C
Q:180
C:Untitled in MS
S:Henry Atkinson's original MS,Hartburn,N'umberland,1694.
O:England
A:Hartburn,Northumberland
N:Clearly a companion piece to #109, and a great pair of tunes they
N:make!.I have taken the liberty of naming them both, as their true names
N:seem to have been forgotten .CGP
H:1/8
Z:vmp.Chris Partington.Jan.2004
K:C
AB|c2(BA) e3a|gede c2(ef)|gega gedc|B2d4AB|!
cBcd efge|gfda "#"g3e|fedc dBGe|c2A4:|!
|:AB|c2(cd) e2(dc)|efgf e3c|(dB)(dB) (dB)(ge)|dcBA B2(AG)|!
AGAB cAdB|ecge a3e|fedc dBae|c2(BA)A2:|]
